assets/images/ico_as.svg

<svg width="20" height="24" fill="none" xmlns="http://www.w3.org/2000/svg"><path d="M20 17.607c-.786 2.28-3.139 6.317-5.563 6.361-1.608.031-2.125-.953-3.963-.953-1.837 0-2.412.923-3.932.983C3.97 24.097 0 18.171 0 13.003c0-4.747 3.308-7.1 6.198-7.143 1.55-.028 3.014 1.045 3.959 1.045.949 0 2.727-1.29 4.596-1.101.782.033 2.979.315 4.389 2.377-3.741 2.442-3.158 7.549.858 9.426zM14.778 0c-2.826.114-5.132 3.079-4.81 5.531 2.612.203 5.118-2.725 4.81-5.531z" fill="#000"/></svg>

<svg width="20" height="24" viewBox="0 0 20 24" fill="none" xmlns="http://www.w3.org/2000/svg">
<path d="M20 17.607C19.214 19.887 16.861 23.924 14.437 23.968C12.829 23.999 12.312 23.015 10.474 23.015C8.637 23.015 8.062 23.938 6.542 23.998C3.97 24.097 0 18.171 0 13.003C0 8.256 3.308 5.903 6.198 5.86C7.748 5.832 9.212 6.905 10.157 6.905C11.106 6.905 12.884 5.615 14.753 5.804C15.535 5.837 17.732 6.119 19.142 8.181C15.401 10.623 15.984 15.73 20 17.607ZM14.778 0C11.952 0.114 9.646 3.079 9.968 5.531C12.58 5.734 15.086 2.806 14.778 0Z" fill="black"/>
</svg>
